build/images/ico/gb.svg

<?xml version="1.0" encoding="UTF-8"?>
<svg width="16px" height="16px" viewBox="0 0 16 16" version="1.1" xmlns="http://www.w3.org/2000/svg" xmlns:xlink="http://www.w3.org/1999/xlink">
    <title>gb@1x</title>
    <g id="1.-Design" stroke="none" stroke-width="1" fill="none" fill-rule="evenodd">
        <g id="HP-v.2.1-(schválená)" transform="translate(-1840, -24)" fill-rule="nonzero">
            <g id="gb" transform="translate(1840, 24)">
                <polygon id="Path" fill="#012169" points="0 0 16 0 16 16 0 16"></polygon>
                <polygon id="Path" fill="#FFFFFF" points="16 0 16 2 10.0625 8 16 13.84375 16 16 13.90625 16 7.9375 10.125 2.125 16 0 16 0 13.875 5.8125 8.03125 0 2.3125 0 0 1.9375 0 7.9375 5.875 13.75 0"></polygon>
                <path d="M5.75,10.125 L6.09375,11.1875 L1.3125,16 L0,16 L0,15.90625 L5.75,10.125 Z M9.625,9.75 L11.3125,10 L16,14.59375 L16,16 L9.625,9.75 Z M16,0 L10,6.125 L9.875,4.75 L14.5625,0 L16,0 Z M0,0.03125 L6.03125,5.9375 L4.1875,5.6875 L0,1.53125 L0,0.03125 Z" id="Shape" fill="#C8102E"></path>
                <path d="M5.5,0 L5.5,16 L10.5,16 L10.5,0 L5.5,0 Z M0,5.5 L0,10.5 L16,10.5 L16,5.5 L0,5.5 Z" id="Shape" fill="#FFFFFF"></path>
                <path d="M0,6.5 L0,9.5 L16,9.5 L16,6.5 L0,6.5 Z M6.5,0 L6.5,16 L9.5,16 L9.5,0 L6.5,0 Z" id="Shape" fill="#C8102E"></path>
            </g>
        </g>
    </g>
</svg>

<svg width="16" height="16" viewBox="0 0 16 16" xmlns="http://www.w3.org/2000/svg"><g fill-rule="nonzero" fill="none"><path fill="#012169" d="M0 0h16v16H0z"/><path fill="#FFF" d="M16 0v2l-5.938 6L16 13.844V16h-2.094l-5.969-5.875L2.125 16H0v-2.125l5.813-5.844L0 2.312V0h1.938l6 5.875L13.75 0z"/><path d="M5.75 10.125l.344 1.063L1.312 16H0v-.094l5.75-5.781zm3.875-.375l1.688.25L16 14.594V16L9.625 9.75zM16 0l-6 6.125-.125-1.375L14.563 0H16zM0 .031l6.031 5.907-1.843-.25L0 1.53v-1.5z" fill="#C8102E"/><path d="M5.5 0v16h5V0h-5zM0 5.5v5h16v-5H0z" fill="#FFF"/><path d="M0 6.5v3h16v-3H0zM6.5 0v16h3V0h-3z" fill="#C8102E"/></g></svg>
